icons/inbox-chevron-up-outline.svg

<svg xmlns="http://www.w3.org/2000/svg" width="24" height="24" viewBox="0 0 24 24">
  <path d="M19,2 C20.5976809,2 21.9036609,3.24891996 21.9949073,4.82372721 L22,5 L22,19 C22,20.5976809 20.75108,21.9036609 19.1762728,21.9949073 L19,22 L5,22 C3.40231912,22 2.09633912,20.75108 2.00509269,19.1762728 L2,19 L2,5 C2,3.40231912 3.24891996,2.09633912 4.82372721,2.00509269 L5,2 L19,2 Z M19,4 L5,4 C4.48716416,4 4.06449284,4.38604019 4.00672773,4.88337887 L4,5 L4,14 L6,14 C7.1045695,14 8,14.8954305 8,16 C8,17.1045695 8.8954305,18 10,18 L14,18 C15.1045695,18 16,17.1045695 16,16 C16,14.8954305 16.8954305,14 18,14 L20,14 L20,5 C20,4.48716416 19.6139598,4.06449284 19.1166211,4.00672773 L19,4 Z M12.6128994,7.70970461 L12.7071068,7.79289322 L15.7071068,10.7928932 C16.0976311,11.1834175 16.0976311,11.8165825 15.7071068,12.2071068 C15.3466228,12.5675907 14.7793918,12.5953203 14.3871006,12.2902954 L14.2928932,12.2071068 L12,9.915 L9.70710678,12.2071068 C9.34662282,12.5675907 8.77939176,12.5953203 8.38710056,12.2902954 L8.29289322,12.2071068 C7.93240926,11.8466228 7.90467972,11.2793918 8.20970461,10.8871006 L8.29289322,10.7928932 L11.2928932,7.79289322 C11.6533772,7.43240926 12.2206082,7.40467972 12.6128994,7.70970461 Z"/>
</svg>

<svg xmlns="http://www.w3.org/2000/svg" viewBox="0 0 24 24">
  <path d="M19 2a3 3 0 0 1 3 2.82V19a3 3 0 0 1-2.82 3H5a3 3 0 0 1-3-2.82V5a3 3 0 0 1 2.82-3H19zm0 2H5a1 1 0 0 0-1 .88V14h2a2 2 0 0 1 2 2c0 1.1.9 2 2 2h4a2 2 0 0 0 2-2c0-1.1.9-2 2-2h2V5a1 1 0 0 0-.88-1H19zm-6.39 3.71.1.08 3 3a1 1 0 0 1-1.32 1.5l-.1-.08L12 9.9l-2.3 2.3a1 1 0 0 1-1.31.08l-.1-.08a1 1 0 0 1-.08-1.32l.08-.1 3-3a1 1 0 0 1 1.32-.08z"/>
</svg>
